packages/icons/svgs/duotone/Source=temperature.svg

<svg width="24" height="24" viewBox="0 0 24 24" fill="none" xmlns="http://www.w3.org/2000/svg">
<path opacity="0.55" d="M15 20C15.7956 20 16.5587 19.6839 17.1213 19.1213C17.6839 18.5587 18 17.7956 18 17H12C12 17.7956 12.3161 18.5587 12.8787 19.1213C13.4413 19.6839 14.2044 20 15 20Z" fill="black"/>
<path fill-rule="evenodd" clip-rule="evenodd" d="M12.1716 1.17157C12.9217 0.421427 13.9391 0 15 0C16.0609 0 17.0783 0.421427 17.8284 1.17157C18.5786 1.92172 19 2.93913 19 4V11.2516C20.0952 12.0142 20.9533 13.0768 21.4672 14.3174C22.0569 15.741 22.1603 17.3195 21.7615 18.8079C21.3627 20.2963 20.4838 21.6116 19.2613 22.5496C18.0388 23.4877 16.5409 23.9962 15 23.9962C13.4591 23.9962 11.9612 23.4877 10.7387 22.5496C9.51616 21.6116 8.63734 20.2963 8.23852 18.8079C7.83969 17.3195 7.94315 15.741 8.53284 14.3174C9.04671 13.0768 9.90477 12.0142 11 11.2516V4C11 2.93913 11.4214 1.92172 12.1716 1.17157ZM15 2C14.4696 2 13.9609 2.21071 13.5858 2.58579C13.2107 2.96086 13 3.46957 13 4V11.8C13 12.1573 12.8094 12.4874 12.5 12.666C11.5468 13.2164 10.8018 14.0658 10.3806 15.0827C9.95939 16.0996 9.8855 17.2271 10.1704 18.2902C10.4552 19.3534 11.083 20.2929 11.9562 20.9629C12.8294 21.633 13.8993 21.9962 15 21.9962C16.1007 21.9962 17.1706 21.633 18.0438 20.9629C18.917 20.2929 19.5448 19.3534 19.8296 18.2902C20.1145 17.2271 20.0406 16.0996 19.6194 15.0827C19.1982 14.0658 18.4532 13.2164 17.5 12.666C17.1906 12.4874 17 12.1573 17 11.8V4C17 3.46957 16.7893 2.96086 16.4142 2.58579C16.0391 2.21071 15.5304 2 15 2Z" fill="black"/>
<path fill-rule="evenodd" clip-rule="evenodd" d="M2 3C2 2.44772 2.44772 2 3 2H7C7.55228 2 8 2.44772 8 3C8 3.55228 7.55228 4 7 4H3C2.44772 4 2 3.55228 2 3Z" fill="black"/>
<path fill-rule="evenodd" clip-rule="evenodd" d="M2 8C2 7.44772 2.44772 7 3 7H7C7.55228 7 8 7.44772 8 8C8 8.55228 7.55228 9 7 9H3C2.44772 9 2 8.55228 2 8Z" fill="black"/>
<path fill-rule="evenodd" clip-rule="evenodd" d="M2 13C2 12.4477 2.44772 12 3 12H5C5.55228 12 6 12.4477 6 13C6 13.5523 5.55228 14 5 14H3C2.44772 14 2 13.5523 2 13Z" fill="black"/>
</svg>

<svg xmlns="http://www.w3.org/2000/svg" width="24" height="24" viewBox="0 0 24 24"><path d="M15 20a3 3 0 0 0 3-3h-6a3 3 0 0 0 3 3Z" opacity=".55"/><path fill-rule="evenodd" d="M12.172 1.172A4 4 0 0 1 19 4v7.252a7 7 0 1 1-8 0V4a4 4 0 0 1 1.172-2.828ZM15 2a2 2 0 0 0-2 2v7.8a1 1 0 0 1-.5.866 5 5 0 1 0 5 0 1 1 0 0 1-.5-.866V4a2 2 0 0 0-2-2ZM2 3a1 1 0 0 1 1-1h4a1 1 0 0 1 0 2H3a1 1 0 0 1-1-1Zm0 5a1 1 0 0 1 1-1h4a1 1 0 0 1 0 2H3a1 1 0 0 1-1-1Zm0 5a1 1 0 0 1 1-1h2a1 1 0 1 1 0 2H3a1 1 0 0 1-1-1Z" clip-rule="evenodd"/></svg>
